X: 672
T: After The Battle Of Aughrim
R: march
M: 
K: Adorian
M:4/4
AG|:"Am" E2A2 ABcd|e2d2 c2A2|"G" ~B2G2 GFGA|"Em" ~B2 AG E2D2|
"Am" E2A2 A2 (3Bcd|e2 ed e2 ag|~e2d2 "G" BedB|1 "Am"A4 A2 AG:|2 "Am"A4 A2 e2||
|:"Am"~a3g e2 (3efg|~a3g e2 (3efg|~a3f "G"~g3e|"Em"dedB G4|
"Am"~a3g e2 (3efg|~a3g "G"~e2d2|"Em" B2e2 "G"d2B2|1 "Am"A4 A2e2:|2 "Am"A4 A4||

